archdroid-icon-theme/Archdroid-Yellow/places/scalable/folder-opensuse.svg

<?xml version="1.0" encoding="UTF-8" standalone="no"?>
<svg
   xmlns:dc="http://purl.org/dc/elements/1.1/"
   xmlns:cc="http://creativecommons.org/ns#"
   xmlns:rdf="http://www.w3.org/1999/02/22-rdf-syntax-ns#"
   xmlns:svg="http://www.w3.org/2000/svg"
   xmlns="http://www.w3.org/2000/svg"
   xmlns:sodipodi="http://sodipodi.sourceforge.net/DTD/sodipodi-0.dtd"
   xmlns:inkscape="http://www.inkscape.org/namespaces/inkscape"
   fill="#FFEB3B"
   width="48"
   height="48"
   viewBox="0 0 48 48"
   id="svg2"
   version="1.1"
   inkscape:version="0.91 r13725"
   sodipodi:docname="folder-.svg">
  <metadata
     id="metadata10">
    <rdf:RDF>
      <cc:Work
         rdf:about="">
        <dc:format>image/svg+xml</dc:format>
        <dc:type
           rdf:resource="http://purl.org/dc/dcmitype/StillImage" />
        <dc:title />
      </cc:Work>
    </rdf:RDF>
  </metadata>
  <defs
     id="defs8" />
  <sodipodi:namedview
     pagecolor="#ffffff"
     bordercolor="#666666"
     borderopacity="1"
     objecttolerance="10"
     gridtolerance="10"
     guidetolerance="10"
     inkscape:pageopacity="0"
     inkscape:pageshadow="2"
     inkscape:window-width="1366"
     inkscape:window-height="713"
     id="namedview6"
     showgrid="false"
     inkscape:zoom="11.02408851011358"
     inkscape:cx="3.730139115742215"
     inkscape:cy="17.1708534761523"
     inkscape:window-x="0"
     inkscape:window-y="30"
     inkscape:window-maximized="1"
     inkscape:current-layer="svg2"
     inkscape:snap-bbox="true"
     inkscape:bbox-paths="true"
     inkscape:bbox-nodes="true" />
  <path
     d="M 8 8 C 5.79 8 4.01953125 9.789999999999999 4.01953125 12 L 4 36 C 4 38.21 5.790000000000001 40 8 40 L 40 40 C 42.21 40 44 38.21 44 36 L 44 16 C 44 13.79 42.21 12 40 12 L 24 12 L 20 8 L 8 8 z M 29 16 C 34.52227475686951 16 39 20.47716051596553 39 26 C 39 31.52295903118986 34.52227475686954 36.00000000000001 29 36 C 23.47760569526052 36 19 31.52295903118985 19 26 C 19 20.4771605159655 23.47748614739058 16 29 16 z M 29.048828125 17.384765625 C 25.74500319090074 17.384765625 23.85706034776472 18.7373729718078 22.625 20.26171875 C 23.56906952904112 20.52065788854319 24.22689701221856 20.7363468976392 24.439453125 20.806640625 C 24.442083178139 20.66390132148174 24.46484375 19.376953125 24.46484375 19.376953125 L 24.484375 19.337890625 L 24.53125 19.322265625 C 24.82127313251283 19.3645853180029 31.01794041108402 20.28014143362443 33.626953125 21.80078125 C 33.94961282601078 21.99026349127003 34.10675658643388 22.19010561430801 34.306640625 22.39453125 C 35.02739473296366 23.13990776376585 35.98503909775732 26.24363423072157 36.0859375 26.884765625 L 36.046875 26.951171875 C 36.0095760645738 26.9649197978682 35.91765870773608 27.0283220286555 35.798828125 27.109375 C 35.19009037118494 27.53496287313655 33.76789896626584 28.53124656768911 31.943359375 28.369140625 C 30.30232576411634 28.22293445397586 28.16071763465572 27.28075595737098 25.578125 25.580078125 C 25.69181502432799 25.84822239450709 26.22869847253311 27.12378166972256 26.318359375 27.337890625 L 26.35546875 27.380859375 C 26.72965358296179 27.57392803093132 30.31746891848778 29.4044862124771 32.09765625 29.3671875 C 33.53438255112912 29.3384961827099 35.06776231277683 28.63761694140095 35.681640625 28.26953125 L 35.876953125 28.232421875 C 35.9315865015698 28.275100209469 35.9231062496638 28.35660538193818 35.90625 28.43359375 C 35.8685924209639 28.60956716271265 35.7831878312784 28.93211911715919 35.724609375 29.08203125 L 35.677734375 29.20703125 C 35.6079184189458 29.39256843514266 35.53874939899177 29.57269279593899 35.408203125 29.6796875 C 35.04621217477374 30.00915946021469 34.46871321334587 30.2693581634643 33.564453125 30.666015625 C 32.16562349864688 31.27737977758996 29.89744909362168 31.66258443484831 27.791015625 31.650390625 C 27.03714675705855 31.6336540232474 26.30679220796324 31.54948626477902 25.666015625 31.4765625 C 24.32887269954407 31.32413987689631 23.24460896312023 31.20130641224791 22.595703125 31.705078125 C 24.17397410415683 33.4888412303569 26.47950530390938 34.615234375 29.048828125 34.615234375 C 33.80671380137199 34.615234375 37.666015625 30.75833542540856 37.666015625 26 C 37.66601562500002 21.24238185752371 33.80719199285179 17.384765625 29.048828125 17.384765625 z M 31.32421875 21.9453125 C 30.66467315145369 21.955234913896 30.04507439193095 22.20185126241796 29.560546875 22.65625 C 29.04147002365179 23.13694911176461 28.7417823798208 23.79240038733279 28.716796875 24.5 C 28.6694559184975 25.95847529558032 29.81826199718915 27.1896271221488 31.27734375 27.244140625 C 31.9878167411475 27.2670936788321 32.65837806883113 27.01601371504742 33.17578125 26.53125 C 33.69174985672936 26.0489967752155 33.9896831122196 25.39597681326886 34.015625 24.689453125 C 34.0655960096415 23.22894552777826 32.91850396020999 21.9977937012098 31.45703125 21.9453125 C 31.4126789902464 21.94375838698 31.3680928182738 21.94459521706775 31.32421875 21.9453125 z M 31.25390625 22.7265625 C 31.3146365679376 22.722856538183 31.37397972197279 22.72429110404801 31.435546875 22.7265625 C 32.45445337063353 22.7623070994573 33.2547742679374 23.61554694878298 33.220703125 24.63671875 C 33.2052814497757 25.12805755859307 32.99532200078677 25.58770189459826 32.634765625 25.92578125 C 32.27325286625358 26.26123056798347 31.80364147948707 26.43510436373271 31.30859375 26.419921875 C 30.28992635010636 26.3821449739014 29.4935117028025 25.52340439104175 29.52734375 24.50390625 C 29.5428849730942 24.01041559261021 29.7548767358724 23.55515569522648 30.11328125 23.21875 C 30.42781169585379 22.92394671484416 30.8281962850873 22.75250423271649 31.25390625 22.7265625 z M 31.740234375 23.650390625 C 31.28607201703781 23.650390625 30.91796875 23.896405805434 30.91796875 24.19921875 C 30.91796875 24.50011894007995 31.28607201703781 24.748046875 31.740234375 24.748046875 C 32.19296215852274 24.748046875 32.55859375 24.50059712870145 32.55859375 24.19921875 C 32.55859375000002 23.896405805434 32.19296215852272 23.650390625 31.740234375 23.650390625 z "
     id="path4184" />
</svg>

<svg xmlns="http://www.w3.org/2000/svg" fill="#FFEB3B" viewBox="0 0 48 48"><path d="m8 8c-2.21 0-3.98 1.79-3.98 4l-.02 24c0 2.21 1.79 4 4 4h32c2.21 0 4-1.79 4-4v-20c0-2.21-1.79-4-4-4h-16l-4-4h-12m21 8c5.522 0 10 4.477 10 10 0 5.523-4.478 10-10 10-5.522 0-10-4.477-10-10 0-5.523 4.477-10 10-10m.049 1.385c-3.304 0-5.192 1.353-6.424 2.877.944.259 1.602.475 1.814.545.003-.143.025-1.43.025-1.43l.02-.039.047-.016c.29.042 6.487.958 9.1 2.479.323.189.48.389.68.594.721.745 1.678 3.849 1.779 4.49l-.039.066c-.037.014-.129.077-.248.158-.609.426-2.031 1.422-3.855 1.26-1.641-.146-3.783-1.088-6.365-2.789.114.268.651 1.544.74 1.758l.037.043c.374.193 3.962 2.024 5.742 1.986 1.437-.029 2.97-.73 3.584-1.098l.195-.037c.055.043.046.124.029.201-.038.176-.123.499-.182.648l-.047.125c-.07.186-.139.366-.27.473-.362.329-.939.59-1.844.986-1.399.611-3.667.997-5.773.984-.754-.017-1.484-.101-2.125-.174-1.337-.152-2.421-.275-3.07.229 1.578 1.784 3.884 2.91 6.453 2.91 4.758 0 8.617-3.857 8.617-8.615 0-4.758-3.859-8.615-8.617-8.615m2.275 4.561c-.66.01-1.279.257-1.764.711-.519.481-.819 1.136-.844 1.844-.047 1.458 1.101 2.69 2.561 2.744.71.023 1.381-.228 1.898-.713.516-.482.814-1.135.84-1.842.05-1.461-1.097-2.692-2.559-2.744-.044-.002-.089-.001-.133 0m-.07.781c.061-.004.12-.002.182 0 1.019.036 1.819.889 1.785 1.91-.015.491-.225.951-.586 1.289-.362.335-.831.509-1.326.494-1.019-.038-1.815-.897-1.781-1.916.016-.493.228-.949.586-1.285.315-.295.715-.466 1.141-.492m.486.924c-.454 0-.822.246-.822.549 0 .301.368.549.822.549.453 0 .818-.247.818-.549 0-.303-.366-.549-.818-.549"/></svg>
